Obsidian-SemiLight/actions/22s/skg-chart-bubble.svg

<svg viewBox="0 0 22 22" xmlns="http://www.w3.org/2000/svg"><path d="m4 3v6 1 5 1 1h-1v1h1v1h1v-1h13.292969.707031v-.707031-.292969h-.292969-1.414062-12.292969v-1.568359-.007813-.423828-2.576172-1-.423828-1-1-3-.0078125-.9921875-2zm11.048828 1.2304688a2.2186046 2.2186046 0 0 0 -2.21875 2.21875 2.2186046 2.2186046 0 0 0 2.21875 2.21875 2.2186046 2.2186046 0 0 0 2.21875-2.21875 2.2186046 2.2186046 0 0 0 -2.21875-2.21875zm-7.0546874 3.5332031a.8063584.8063584 0 0 0 -.8066406.8066406.8063584.8063584 0 0 0 .8066406.8066406.8063584.8063584 0 0 0 .8046875-.8066406.8063584.8063584 0 0 0 -.8046875-.8066406zm3.9101564 3.4062501a1.4709449 1.4709449 0 0 0 -1.470703 1.470703 1.4709449 1.4709449 0 0 0 1.470703 1.470703 1.4709449 1.4709449 0 0 0 1.470703-1.470703 1.4709449 1.4709449 0 0 0 -1.470703-1.470703z" fill="#4d4d4d"/></svg>

<svg xmlns="http://www.w3.org/2000/svg" viewBox="0 0 22 22">
  <defs id="defs3051">
    <style type="text/css" id="current-color-scheme">
      .ColorScheme-Text {
        color:#4d4d4d;
      }
      .ColorScheme-Highlight {
        color:#3daee9;
      }
      </style>
  </defs>
 <path 
     style="fill:currentColor;fill-opacity:1;stroke:none" 
     d="M 4 3 L 4 9 L 4 10 L 4 15 L 4 16 L 4 17 L 3 17 L 3 18 L 4 18 L 4 19 L 5 19 L 5 18 L 18.292969 18 L 19 18 L 19 17.292969 L 19 17 L 18.707031 17 L 17.292969 17 L 5 17 L 5 15.431641 L 5 15.423828 L 5 15 L 5 12.423828 L 5 11.423828 L 5 11 L 5 10 L 5 9 L 5 6 L 5 5.9921875 L 5 5 L 5 3 L 4 3 z M 15.048828 4.2304688 A 2.2186046 2.2186046 0 0 0 12.830078 6.4492188 A 2.2186046 2.2186046 0 0 0 15.048828 8.6679688 A 2.2186046 2.2186046 0 0 0 17.267578 6.4492188 A 2.2186046 2.2186046 0 0 0 15.048828 4.2304688 z M 7.9941406 7.7636719 A 0.8063584 0.8063584 0 0 0 7.1875 8.5703125 A 0.8063584 0.8063584 0 0 0 7.9941406 9.3769531 A 0.8063584 0.8063584 0 0 0 8.7988281 8.5703125 A 0.8063584 0.8063584 0 0 0 7.9941406 7.7636719 z M 11.904297 11.169922 A 1.4709449 1.4709449 0 0 0 10.433594 12.640625 A 1.4709449 1.4709449 0 0 0 11.904297 14.111328 A 1.4709449 1.4709449 0 0 0 13.375 12.640625 A 1.4709449 1.4709449 0 0 0 11.904297 11.169922 z "
     class="ColorScheme-Text"
     />
</svg>
